X:6611
T:GUEDENNES D' ERQUY
Z: Yves BELOTTEAU
M:4/4
L:1/8
Q:1/4=60
K:C
|GA/2B/2cB cdcd|eedc d2c2|GA/2B/2cB cdcd|eedc d2c2|
e3/2d/2cc Bcd2|ggfe d2c2|e3/2d/2cc Bcd2|ggfe d2c3/2|
